X: 43543
T: You'll Go A Hunting No More
R: jig
M: 6/8
K: Gmajor
B|:dBB BGG|DGG G>AB|cee dBG|FAA A>Bc|
dBB BGG|DGG G>AB|cee dcA|1 BGG G2B:|2 BGG G2 (B/d/)||
|:gfe dBA|Bee (e2f)|{a}gfg (ea)(g|f)dd d>ef|
{a}gfe dBA|(Be)e e2f|gfg aga|1 bgg g2 (e/f/):|2 bag gfe||

